X:148
T:Duncan Grey with Variations. RH.148
R:Air
S:Rev.R.Harrison’s MS,c1815,Cumbria
O:England
A:Temple Sowerby,Cumbria
Z:vmp.Simon Wilson. Review PJH, 2008.
M:C|
L:1/8
Q:1/2=80
K:D
A2d2c2d2|e2f2c4|d4egfe|f2d2d4:|\
|:f2a2a2gf|e2g2g2fe|d2f2e2d2|cdecA4|!
a2bag2(ag)|f2(gf) (eg).f.e|d4(eg).f.e|f2d2d4:|!
|:”Var. 1st”A2d2gfed|efgec4|d3f egfe|f2d2d4:|!
|:f2a2bagf|e2g2agfe|d2f2gfed|cdBcA4|!
afba geag|fdgf ecfe|dAdf egfe|f2d2d4:|!
|:”Var. 2nd”dcBA BFGB|AGFED4|d3f egfe|fdAFD4:|!
|:fdaf d’afd|ecae c’aec|BGdB bged|caecA4|!
d2dc Bdg2|e2ed cea2|d2d’2c’bag|f2d2d4:|!
|:”Var. 3rd”d>Ad>f e>Ac>e|f>Ad>f e>Ac>e|\
d>Ad>f e>Ac>e|f2d2d4:|!
|:b>fd>f d>fb>f|g>ec>e c>eg>e|f>dB>d g>ef>d|c>dB>cA4|!
a>fd>f g>ec>e|f>dB>d e>cA>c|d>Ad>f e>Ac>e|f2d2d4:|

